styles/6/Numix/48/places/default-folder-move.svg

<?xml version="1.0" encoding="UTF-8" standalone="no"?>
<svg
   xmlns:dc="http://purl.org/dc/elements/1.1/"
   xmlns:cc="http://creativecommons.org/ns#"
   xmlns:rdf="http://www.w3.org/1999/02/22-rdf-syntax-ns#"
   xmlns:svg="http://www.w3.org/2000/svg"
   xmlns="http://www.w3.org/2000/svg"
   xmlns:sodipodi="http://sodipodi.sourceforge.net/DTD/sodipodi-0.dtd"
   xmlns:inkscape="http://www.inkscape.org/namespaces/inkscape"
   viewBox="0 0 48 48"
   id="svg2"
   version="1.1"
   inkscape:version="0.91 r13725"
   sodipodi:docname="blue-folder-move.svg">
  <metadata
     id="metadata36">
    <rdf:RDF>
      <cc:Work
         rdf:about="">
        <dc:format>image/svg+xml</dc:format>
        <dc:type
           rdf:resource="http://purl.org/dc/dcmitype/StillImage" />
      </cc:Work>
    </rdf:RDF>
  </metadata>
  <defs
     id="defs34" />
  <sodipodi:namedview
     pagecolor="#ffffff"
     bordercolor="#666666"
     borderopacity="1"
     objecttolerance="10"
     gridtolerance="10"
     guidetolerance="10"
     inkscape:pageopacity="0"
     inkscape:pageshadow="2"
     inkscape:window-width="722"
     inkscape:window-height="480"
     id="namedview32"
     showgrid="false"
     inkscape:zoom="4.9166667"
     inkscape:cx="24"
     inkscape:cy="24"
     inkscape:window-x="0"
     inkscape:window-y="24"
     inkscape:window-maximized="0"
     inkscape:current-layer="svg2" />
  <path
     d="m 6,9.9978 0,14 21,0 0,-7 -1,-6 -8,0 -1,-2 -10,0 c -0.5,0 -1,0.5 -1,1 z"
     style="fill:#ef6c00;fill-opacity:1;stroke:none"
     id="path8"
     inkscape:connector-curvature="0" />
  <path
     d="M 7,9 C 6.5,9 6,9.5 6,10 l 0,1 c 0,-0.5 0.5,-1 1,-1 l 9,0 1,2 9,0 1,6 0,-1 -1,-6 -8,0 -1,-2 z"
     style="opacity:0.01499999;fill:#000000;fill-opacity:1;stroke:none"
     id="path10"
     inkscape:connector-curvature="0" />
  <rect
     width="10"
     height="4"
     x="8"
     y="11.997786"
     style="fill:#fffdf0;fill-opacity:1;stroke:none"
     id="rect12" />
  <path
     d="m 27,11.9978 0,14 -21,0 0,-13 10,0 1,-2 9,0 c 0.5,0 1,0.5 1,1 z"
     style="fill:#ffa726;fill-opacity:1;stroke:none"
     id="path14"
     inkscape:connector-curvature="0" />
  <path
     d="m 6,24.9978 0,1 21,0 0,-1 z"
     style="opacity:0.075;fill:#000000;fill-opacity:1;stroke:none"
     id="path16"
     inkscape:connector-curvature="0" />
  <path
     d="m 17,11 -1,2 -10,0 0,1 11,0 1,-2 8,0 c 0.5,0 1,0.5 1,1 l 0,-1 c 0,-0.5 -0.5,-1 -1,-1 z"
     style="opacity:0.01499999;fill:#000000;fill-opacity:1;stroke:none"
     id="path18"
     inkscape:connector-curvature="0" />
  <path
     style="fill:#ffffff;fill-opacity:1;stroke:none;opacity:0.5"
     d="M 7 8.9980469 C 6.749492 8.9980469 6.5001262 9.1243647 6.3125 9.3125 C 6.2192576 9.4059953 6.1404027 9.5141482 6.0859375 9.6308594 C 6.0857145 9.6313354 6.0861598 9.6323362 6.0859375 9.6328125 C 6.0317612 9.7494872 6 9.8736772 6 9.9980469 C 5.9999984 9.9986772 6 9.9993696 6 10 L 6 11 L 6 12.998047 L 6 13 L 6 14 L 6 23.998047 L 6 24.998047 L 6 25.998047 L 27 25.998047 L 27 24.998047 L 27 23.998047 L 27 18 L 27 17 L 27 16.998047 L 27 13 L 27 12 C 27 12 27 11.998047 27 11.998047 C 27 11.873677 26.968239 11.749487 26.914062 11.632812 C 26.914062 11.632812 26.914062 11.630859 26.914062 11.630859 C 26.859597 11.514148 26.780742 11.404042 26.6875 11.310547 C 26.5 11.123047 26.25 10.998047 26 10.998047 L 18 10.998047 L 17 9 L 17 8.9980469 L 7 8.9980469 z "
     id="path4179" />
  <path
     inkscape:connector-curvature="0"
     id="path20"
     style="fill:#ef6c00;fill-opacity:1;stroke:none"
     d="m 21,22.9978 0,14 21,0 0,-7 -1,-6 -8,0 -1,-2 -10,0 c -0.5,0 -1,0.5 -1,1 z" />
  <path
     inkscape:connector-curvature="0"
     id="path22"
     style="opacity:0.02999998;fill:#000000;fill-opacity:1;stroke:none"
     d="m 22,22 c -0.5,0 -1,0.5 -1,1 l 0,1 c 0,-0.5 0.5,-1 1,-1 l 9,0 1,2 9,0 1,6 0,-1 -1,-6 -8,0 -1,-2 z" />
  <rect
     id="rect24"
     style="fill:#fffdf0;fill-opacity:1;stroke:none"
     y="24.997786"
     x="23"
     height="4"
     width="10" />
  <path
     inkscape:connector-curvature="0"
     id="path26"
     style="fill:#ffa726;fill-opacity:1;stroke:none"
     d="m 42,24.9978 0,14 -21,0 0,-13 10,0 1,-2 9,0 c 0.5,0 1,0.5 1,1 z" />
  <path
     inkscape:connector-curvature="0"
     id="path28"
     style="opacity:0.15;fill:#000000;fill-opacity:1;stroke:none"
     d="m 21,37.9978 0,1 21,0 0,-1 z" />
  <path
     inkscape:connector-curvature="0"
     id="path30"
     style="opacity:0.02999998;fill:#000000;fill-opacity:1;stroke:none"
     d="m 32,24 -1,2 -10,0 0,1 11,0 1,-2 8,0 c 0.5,0 1,0.5 1,1 l 0,-1 c 0,-0.5 -0.5,-1 -1,-1 z" />
</svg>

<svg viewBox="0 0 48 48" xmlns="http://www.w3.org/2000/svg">
 <path style="fill:#ef6c00;fill-opacity:1;stroke:none" d="m 6 9.998 0 14 21 0 0 -7 -1 -6 -8 0 -1 -2 -10 0 c -0.5 0 -1 0.5 -1 1 z"/>
 <path style="fill:#000;opacity:0.015;fill-opacity:1;stroke:none" d="M 7,9 C 6.5,9 6,9.5 6,10 l 0,1 c 0,-0.5 0.5,-1 1,-1 l 9,0 1,2 9,0 1,6 0,-1 -1,-6 -8,0 -1,-2 z"/>
 <rect style="fill:#fffdf0;fill-opacity:1;stroke:none" width="10" height="4" y="11.998" x="8"/>
 <path style="fill:#ffa726;fill-opacity:1;stroke:none" d="m 27 11.998 0 14 -21 0 0 -13 10 0 1 -2 9 0 c 0.5 0 1 0.5 1 1 z"/>
 <path style="fill:#000;opacity:0.075;fill-opacity:1;stroke:none" d="m 6 24.998 0 1 21 0 0 -1 z"/>
 <path style="fill:#000;opacity:0.015;fill-opacity:1;stroke:none" d="m 17 11 -1 2 -10 0 0 1 11 0 1 -2 8 0 c 0.5 0 1 0.5 1 1 l 0 -1 c 0 -0.5 -0.5 -1 -1 -1 z"/>
 <path style="fill:#fff;opacity:0.5;fill-opacity:1;stroke:none" d="m 7 8.998 c -0.251 0 -0.5 0.126 -0.688 0.314 c -0.093 0.093 -0.172 0.202 -0.227 0.318 c 0 0 0 0.001 0 0.002 c -0.054 0.117 -0.086 0.241 -0.086 0.365 c 0 0.001 0 0.001 0 0.002 l 0 1 l 0 1.998 l 0 0.002 l 0 1 l 0 9.998 l 0 1 l 0 1 l 21 0 l 0 -1 l 0 -1 l 0 -5.998 l 0 -1 l 0 -0.002 l 0 -3.998 l 0 -1 c 0 0 0 -0.002 0 -0.002 c 0 -0.124 -0.032 -0.249 -0.086 -0.365 c 0 0 0 -0.002 0 -0.002 c -0.054 -0.117 -0.133 -0.227 -0.227 -0.32 c -0.188 -0.188 -0.438 -0.313 -0.688 -0.313 l -8 0 l -1 -1.998 l 0 -0.002 l -10 0 z"/>
 <path style="fill:#ef6c00;fill-opacity:1;stroke:none" d="m 21 22.998 0 14 21 0 0 -7 -1 -6 -8 0 -1 -2 -10 0 c -0.5 0 -1 0.5 -1 1 z"/>
 <path style="fill:#000;opacity:0.03;fill-opacity:1;stroke:none" d="m 22 22 c -0.5 0 -1 0.5 -1 1 l 0 1 c 0 -0.5 0.5 -1 1 -1 l 9 0 1 2 9 0 1 6 0 -1 -1 -6 -8 0 -1 -2 z"/>
 <rect style="fill:#fffdf0;fill-opacity:1;stroke:none" width="10" height="4" y="24.998" x="23"/>
 <path style="fill:#ffa726;fill-opacity:1;stroke:none" d="m 42 24.998 0 14 -21 0 0 -13 10 0 1 -2 9 0 c 0.5 0 1 0.5 1 1 z"/>
 <path style="fill:#000;opacity:0.15;fill-opacity:1;stroke:none" d="m 21 37.998 0 1 21 0 0 -1 z"/>
 <path style="fill:#000;opacity:0.03;fill-opacity:1;stroke:none" d="m 32 24 -1 2 -10 0 0 1 11 0 1 -2 8 0 c 0.5 0 1 0.5 1 1 l 0 -1 c 0 -0.5 -0.5 -1 -1 -1 z"/>
</svg>
